X:1
T:Title
%%score { ( 1 4 ) | ( 2 3 ) }
L:1/8
Q:1/4=100
M:4/4
K:D
V:1 treble nm="Grand Piano"
V:4 treble 
V:2 bass 
V:3 bass 
V:1
 [FA]>[GB] [FA]>[DF] [FA]2 [Fd]2 | e>d c>B [DFA]2 [A,DF]2 | [EG]>[^DF] [EG]>[DF] [EG]2 [CE]2 | %3
w: J.~E.~Hall * * * * *|||
 [DF]>[EG] [FA]>[GB] [FA]4 | [FA]>[GB] [FA]>[DF] [FA]2 [Fd]2 | e>d c>B [DFA]2 [A,DF]2 | %6
w: |||
 [A,EG]>[A,^DF] [A,EG]>[A,CE] [A,=DF]2 [DFA]2 | [EG]>A B>c [Fd]4 | d>d d>d c2 c2 | B>B B>B [DFA]4 | %10
w: ||||
 [DFB]>[DFB] [DFB]>[B,^DF] [B,EG]2 [B,EG]2 | [CEA]>[CEA] [FA]>[EG] [DF]4 | %12
w: ||
 [Fd]>[Fd] [Fd]>[Fd] c2 c2 | B>B B>B [FA]4 |[M:9/8] F>FG- G/A/ B2 d3 | %15
w: |||
[M:4/4] c>c [GB]>[Gc] [Fd]4 |] %16
w: |
V:2
 [D,A,]>[D,A,] [D,A,]>[D,A,] [D,A,]2 [D,A,]2 | z2 C2[K:bass] z4 | %2
 [A,,A,]>[A,,A,] [A,,A,]>[A,,A,] [A,,A,]2 [A,,A,]2 | [D,A,]2 [D,D]2 [D,D]4 | %4
 [D,D]>[D,D] [D,D]>[D,A,] [D,D]2 [D,A,]2 | z2 C2[K:bass] z4 | A,,>A,, A,,>A,, D,2 D,2 | %7
 z z/ F/ [A,,A,]2 [D,A,]4 | [B,F]>[B,F] [B,F]>[B,F] [F,^A,F]2[K:bass] [F,A,E]2 | %9
 [G,B,D]>[K:treble][G,B,D] [G,DG]>[G,DG][K:bass] D,4 | B,,>B,, B,,>B,, E,2 E,2 | %11
 A,,>A,, [A,,A,]>[A,,A,] [D,A,]4 | [B,,B,]>[B,,B,] [B,,B,]>[B,,B,] [F,^A,F]2 [F,A,E]2 | %13
 [G,B,D]>[G,B,D] [G,DG]>[G,DG][K:bass] [D,D]4 | %14
[M:9/8] [D,A,D]>[D,A,D][E,A,C]- [E,A,C]/[F,D]/[K:treble] [G,D]2 [G,B,G]3 | %15
[M:4/4] [A,G]>[A,G][K:bass] [A,,A,]>[A,,A,] [D,A,]4 |] %16
V:3
 x8 | [G,B,G]2 [G,G]->[G,DG][K:bass] D,2 D,2 | x8 | x8 | x8 | %5
 [G,B,G]2 [G,G]->[G,DG][K:bass] D,2 D,2 | x8 | A,,2 z2 z4 | x6[K:bass] x2 | %9
 x3/2[K:treble] x5/2[K:bass] x4 | x8 | x8 | x8 | x4[K:bass] x4 |[M:9/8] x4[K:treble] x5 | %15
[M:4/4] x2[K:bass] x6 |] %16
V:4
 x8 | x8 | x8 | x8 | x8 | x8 | x8 | C2 G2 z4 | x8 | x8 | x8 | x8 | x8 | x8 |[M:9/8] x9 | %15
[M:4/4] x8 |] %16

